packages/Eid/src/QuranIcon/index.svg

<svg xmlns="http://www.w3.org/2000/svg" viewBox="0 0 32 32"><path fill="#bc9a7b" d="M.5,21.50129V6.43639A1,1,0,0,1,1.7114,5.459L16,8.54952,30.2886,5.459a1,1,0,0,1,1.2114.9774v15.077a1,1,0,0,1-.793.97835L16,25.60281,1.29227,22.47948A1,1,0,0,1,.5,21.50129Z"/><path fill="#2c2b2d" d="M16,26.10254a.53367.53367,0,0,1-.104-.01074l-14.70752-3.123A1.50647,1.50647,0,0,1,0,21.501V6.43652A1.49884,1.49884,0,0,1,1.81689,4.9707L16,8.03809,30.18359,4.9707A1.49921,1.49921,0,0,1,32,6.43652V21.51367a1.50608,1.50608,0,0,1-1.18945,1.4668l-14.707,3.11133A.52883.52883,0,0,1,16,26.10254ZM1.499,5.93652a.499.499,0,0,0-.499.5V21.501a.502.502,0,0,0,.396.48925L16,25.0918,30.60352,22.002A.50217.50217,0,0,0,31,21.51367V6.43652a.50051.50051,0,0,0-.60547-.48925L16.10547,9.03809a.48063.48063,0,0,1-.21094,0L1.60547,5.94727A.55795.55795,0,0,0,1.499,5.93652Z"/><path fill="#e0e0e2" d="M27.73337,19.79405,16,22.61006l-11.73337-2.816A1,1,0,0,1,3.5,18.82167V3.87846a1,1,0,0,1,1.23337-.97239L16,5.61006l11.26663-2.704A1,1,0,0,1,28.5,3.87846V18.82167A1,1,0,0,1,27.73337,19.79405Z"/><path fill="#2c2b2d" d="M16,23.11035a.52541.52541,0,0,1-.1167-.01367L4.1499,20.28027A1.495,1.495,0,0,1,3,18.82129V3.87891a1.50017,1.50017,0,0,1,1.85059-1.459L16,5.0957,27.15039,2.41992A1.49938,1.49938,0,0,1,29,3.87891V18.82129a1.49442,1.49442,0,0,1-1.15039,1.459L16.1167,23.09668A.52534.52534,0,0,1,16,23.11035ZM4.49854,3.37793A.50012.50012,0,0,0,4,3.87891V18.82129a.49764.49764,0,0,0,.38281.48633L16,22.0957l11.61719-2.78808h0A.49764.49764,0,0,0,28,18.82129V3.87891a.49886.49886,0,0,0-.61621-.48633L16.1167,6.09668a.523.523,0,0,1-.2334,0L4.6167,3.39258A.48916.48916,0,0,0,4.49854,3.37793Z"/><path fill="#afaeb3" d="M4.26663,19.79405,16,22.61006v-.63481a3,3,0,0,0-2.29988-2.91716L3.5,16.61006v2.21161A1,1,0,0,0,4.26663,19.79405Z"/><path fill="#2c2b2d" d="M16,23.11035a.52541.52541,0,0,1-.1167-.01367L4.15039,20.28027A1.49493,1.49493,0,0,1,3,18.82129V16.61035a.4999.4999,0,0,1,.19043-.39258A.50552.50552,0,0,1,3.6167,16.124l10.20019,2.44727A3.49036,3.49036,0,0,1,16.5,21.97559v.63476a.50012.50012,0,0,1-.5.5ZM4,17.24414v1.57715a.49764.49764,0,0,0,.38281.48633H4.3833L15.5,21.97656v-.001A2.49392,2.49392,0,0,0,13.5835,19.544Z"/><path fill="#afaeb3" d="M16,22.61006l11.73337-2.816A1,1,0,0,0,28.5,18.82167V16.61006l-10.20012,2.448A3,3,0,0,0,16,21.97525Z"/><path fill="#2c2b2d" d="M16 23.11035a.50012.50012 0 0 1-.5-.5v-.63476a3.49045 3.49045 0 0 1 2.68262-3.4043L28.38379 16.124a.50629.50629 0 0 1 .42578.09375A.4999.4999 0 0 1 29 16.61035v2.21094a1.49442 1.49442 0 0 1-1.15039 1.459L16.1167 23.09668A.52534.52534 0 0 1 16 23.11035zm12-5.86621L18.416 19.544A2.494 2.494 0 0 0 16.5 21.97559v.001l11.11719-2.66894A.49764.49764 0 0 0 28 18.82129zM18.80371 13.86816a.5001.5001 0 0 1-.12109-.98535l6.94629-1.73633a.50023.50023 0 0 1 .24218.97071L18.9248 13.85352A.51973.51973 0 0 1 18.80371 13.86816zM18.80371 10.86816a.5001.5001 0 0 1-.12109-.98535l6.94629-1.73633a.50023.50023 0 0 1 .24218.97071L18.9248 10.85352A.51973.51973 0 0 1 18.80371 10.86816zM18.80371 7.86816a.5001.5001 0 0 1-.12109-.98535l6.94629-1.73633a.50023.50023 0 0 1 .24218.97071L18.9248 7.85352A.51973.51973 0 0 1 18.80371 7.86816zM18.80371 16.86816a.5001.5001 0 0 1-.12109-.98535l6.94629-1.73633a.50023.50023 0 0 1 .24218.97071L18.9248 16.85352A.51973.51973 0 0 1 18.80371 16.86816zM12.75049 13.86816a.52069.52069 0 0 1-.12158-.01464l-6.9458-1.73633a.50023.50023 0 0 1 .24218-.97071l6.9458 1.73633a.50016.50016 0 0 1-.1206.98535zM12.75049 10.86816a.52069.52069 0 0 1-.12158-.01464L5.68311 9.11719a.50023.50023 0 0 1 .24218-.97071l6.9458 1.73633a.50016.50016 0 0 1-.1206.98535zM12.75049 7.86816a.52069.52069 0 0 1-.12158-.01464L5.68311 6.11719a.50023.50023 0 0 1 .24218-.97071l6.9458 1.73633a.50016.50016 0 0 1-.1206.98535zM12.75049 16.86816a.52069.52069 0 0 1-.12158-.01464l-6.9458-1.73633a.50023.50023 0 0 1 .24218-.97071l6.9458 1.73633a.50016.50016 0 0 1-.1206.98535z"/><path fill="#2c2b2d" d="M16,23.11035a.49971.49971,0,0,1-.5-.5v-17a.5.5,0,0,1,1,0v17A.49971.49971,0,0,1,16,23.11035Z"/><path fill="#b28966" d="M28.593,29.085l-12.573-3.48875,13.84042-2.92547v5.45063A1,1,0,0,1,28.593,29.085Z"/><path fill="#2c2b2d" d="M28.86426,29.62207a1.52406,1.52406,0,0,1-.40528-.05566h0L15.88623,26.07813a.49978.49978,0,0,1,.03027-.97071l13.84034-2.92578a.5074.5074,0,0,1,.418.10059.5009.5009,0,0,1,.18555.38867v5.45019a1.5009,1.5009,0,0,1-1.49609,1.501Zm-.1377-1.01855a.50019.50019,0,0,0,.63379-.48243v-4.833l-11.2334,2.374Z"/><path fill="#b28966" d="M3.427,29.085,16,25.59626,2.15957,22.66366v5.45776A1,1,0,0,0,3.427,29.085Z"/><path fill="#2c2b2d" d="M3.15576,29.62207a1.50163,1.50163,0,0,1-1.49609-1.501v-5.457a.49969.49969,0,0,1,.60351-.48926l13.84034,2.93262a.49978.49978,0,0,1,.03027.97071L3.56055,29.56641A1.51779,1.51779,0,0,1,3.15576,29.62207Zm-.49609-6.34082v4.83984a.50048.50048,0,0,0,.6333.48243h0L13.895,25.66211Z"/></svg>

<svg xmlns="http://www.w3.org/2000/svg" viewBox="0 0 32 32">
  <path fill="#bc9a7b" d="M.5 21.501V6.436a1 1 0 011.211-.977L16 8.549l14.289-3.09a1 1 0 011.211.977v15.077a1 1 0 01-.793.979L16 25.602 1.292 22.48a1 1 0 01-.792-.978z"/>
  <path fill="#2c2b2d" d="M16 26.103a.534.534 0 01-.104-.011L1.188 22.969A1.506 1.506 0 010 21.5V6.437A1.499 1.499 0 011.817 4.97L16 8.038l14.184-3.067A1.5 1.5 0 0132 6.437v15.077a1.506 1.506 0 01-1.19 1.466l-14.706 3.112a.529.529 0 01-.104.01zM1.499 5.937a.499.499 0 00-.499.5V21.5a.502.502 0 00.396.49L16 25.09l14.604-3.089a.502.502 0 00.396-.488V6.437a.5.5 0 00-.605-.49l-14.29 3.091a.48.48 0 01-.21 0l-14.29-3.09a.558.558 0 00-.106-.011z"/>
  <path fill="#e0e0e2" d="M27.733 19.794L16 22.61 4.267 19.794a1 1 0 01-.767-.972V3.878a1 1 0 011.233-.972L16 5.61l11.267-2.704a1 1 0 011.233.972v14.944a1 1 0 01-.767.972z"/>
  <path fill="#2c2b2d" d="M16 23.11a.525.525 0 01-.117-.013L4.15 20.28A1.495 1.495 0 013 18.821V3.88a1.5 1.5 0 011.85-1.46L16 5.097 27.15 2.42A1.5 1.5 0 0129 3.879V18.82a1.494 1.494 0 01-1.15 1.46l-11.733 2.816a.525.525 0 01-.117.013zM4.499 3.378a.5.5 0 00-.499.5v14.943a.498.498 0 00.383.487L16 22.096l11.617-2.788A.498.498 0 0028 18.82V3.88a.499.499 0 00-.616-.486L16.117 6.097a.523.523 0 01-.234 0L4.617 3.393a.49.49 0 00-.118-.015z"/>
  <path fill="#afaeb3" d="M4.267 19.794L16 22.61v-.635a3 3 0 00-2.3-2.917L3.5 16.61v2.212a1 1 0 00.767.972z"/>
  <path fill="#2c2b2d" d="M16 23.11a.525.525 0 01-.117-.013L4.15 20.28A1.495 1.495 0 013 18.821v-2.21a.5.5 0 01.19-.393.506.506 0 01.427-.094l10.2 2.447a3.49 3.49 0 012.683 3.405v.634a.5.5 0 01-.5.5zM4 17.244v1.577a.498.498 0 00.383.487L15.5 21.977v-.001a2.494 2.494 0 00-1.916-2.432z"/>
  <path fill="#afaeb3" d="M16 22.61l11.733-2.816a1 1 0 00.767-.972V16.61l-10.2 2.448a3 3 0 00-2.3 2.917z"/>
  <path fill="#2c2b2d" d="M16 23.11a.5.5 0 01-.5-.5v-.634a3.49 3.49 0 012.683-3.405l10.2-2.447a.506.506 0 01.427.094.5.5 0 01.19.392v2.211a1.494 1.494 0 01-1.15 1.46l-11.733 2.816a.525.525 0 01-.117.013zm12-5.866l-9.584 2.3a2.494 2.494 0 00-1.916 2.432l11.117-2.668A.498.498 0 0028 18.82zm-9.196-3.376a.5.5 0 01-.121-.985l6.946-1.737a.5.5 0 01.242.971l-6.946 1.737a.52.52 0 01-.121.014zm0-3a.5.5 0 01-.121-.985l6.946-1.737a.5.5 0 01.242.971l-6.946 1.737a.52.52 0 01-.121.014zm0-3a.5.5 0 01-.121-.985l6.946-1.737a.5.5 0 01.242.971l-6.946 1.737a.52.52 0 01-.121.014zm0 9a.5.5 0 01-.121-.985l6.946-1.737a.5.5 0 01.242.971l-6.946 1.737a.52.52 0 01-.121.014zm-6.054-3a.52.52 0 01-.121-.014l-6.946-1.737a.5.5 0 01.242-.97l6.946 1.736a.5.5 0 01-.12.985zm0-3a.52.52 0 01-.121-.014L5.683 9.117a.5.5 0 01.242-.97l6.946 1.736a.5.5 0 01-.12.985zm0-3a.52.52 0 01-.121-.014L5.683 6.117a.5.5 0 01.242-.97l6.946 1.736a.5.5 0 01-.12.985zm0 9a.52.52 0 01-.121-.014l-6.946-1.737a.5.5 0 01.242-.97l6.946 1.736a.5.5 0 01-.12.985z"/>
  <path fill="#2c2b2d" d="M16 23.11a.5.5 0 01-.5-.5v-17a.5.5 0 011 0v17a.5.5 0 01-.5.5z"/>
  <path fill="#b28966" d="M28.593 29.085L16.02 25.596l13.84-2.925v5.45a1 1 0 01-1.267.964z"/>
  <path fill="#2c2b2d" d="M28.864 29.622a1.524 1.524 0 01-.405-.056l-12.573-3.488a.5.5 0 01.03-.97l13.84-2.926a.507.507 0 01.419.1.5.5 0 01.185.389v5.45a1.5 1.5 0 01-1.496 1.501zm-.137-1.018a.5.5 0 00.633-.483v-4.833l-11.233 2.374z"/>
  <path fill="#b28966" d="M3.427 29.085L16 25.596 2.16 22.664v5.457a1 1 0 001.267.964z"/>
  <path fill="#2c2b2d" d="M3.156 29.622a1.502 1.502 0 01-1.496-1.5v-5.458a.5.5 0 01.603-.49l13.84 2.933a.5.5 0 01.03.971L3.562 29.566a1.518 1.518 0 01-.405.056zm-.496-6.34v4.84a.5.5 0 00.633.482l10.602-2.942z"/>
</svg>
